X: 3
T: Die Gedanken sind frei
M: 3/4
L: 1/8
K: A
e2 | "A"a2 a2 c'a |    e4     e2 | "E7"d2  B2 e2 | "A"c2 A2  e2 \
   | "A"a2 a2 c'a |    e4     e2 | "E7"d2  B2 e2 | "A"c2 A2  a2 |
   |"E7"g2 b2 e2  | "A"a2 c'2 a2 | "E7"g2  b2 e2 | "A"a2 c'2 a2 \
   | "D"f2 f2 af  | "A"e4     ec'| "E7"c'b a2 g2 | "A"a4       |]
